lut3d_utils/data/hlg_bt2020_to_bt709_33x33x33.cube
LUT_3D_SIZE 9
0 0 0
0.09611164 0 0
0.2047257 0 0
0.3186192 0 0
0.4360825 0 0
0.5868772 0 0
0.8195706 0 0
1.170178 0 0
1.687084 0 0
0 0.08805103 0
0.08849374 0.08603449 0
0.2053725 0.07367425 0
0.3201159 0.01274607 0
0.4375801 0 0
0.5882062 0 0
0.8206579 0 0
1.171022 0 0
1.685203 0 0
0 0.1875559 0
0 0.1867581 0
0.1884989 0.1832605 0
0.3159785 0.1744953 0
0.4374603 0.1569322 0
0.5897922 0.1107614 0
0.8228298 0 0
1.173103 0 0
1.678409 0 0
0 0.2918975 0
0 0.2913857 0
0.1182588 0.2894771 0
0.2933651 0.2852125 0
0.4277163 0.2773256 0
0.5867374 0.2600359 0
0.823516 0.2085817 0
1.175249 0 0
1.66413 0 0
0 0.3995095 0
0 0.3991267 0
0 0.3978101 0
0.2373492 0.3951027 0
0.4015182 0.39036 0
0.5745339 0.3804059 0
0.8198891 0.3534441 0
1.175938 0.2689512 0
1.64012 0 0
0 0.5376575 0
0 0.5373633 0
0 0.5364031 0
0 0.534557 0
0.331604 0.5314971 0
0.5403608 0.5253441 0
0.8055397 0.5093953 0
1.172423 0.4647064 0
1.5953 0.2940477 0
0 0.7508356 0
0 0.7506152 0
0 0.7499216 0
0 0.7486609 0
0 0.7466864 0
0.425455 0.7429195 0
0.7546107 0.73364 0
1.11751 0.6874582 0
1.501199 0.5654556 0
0 1.016971 0
0 1.015834 0
0 1.012412 0
0 1.006672 0
0 0.9985786 0
0 0.9851036 0
0.5184555 0.9579574 0
0.9303252 0.9044714 0
1.327897 0.8045717 0
0 1.18592 0
0 1.184951 0
0 1.182051 0
0 1.177248 0
0 1.170585 0
0 1.159713 0
0 1.138394 0
0.5746584 1.097577 0
1.051911 1.022679 0
0 0 0.07015413
0.09593029 0 0.0812126
0.2047212 0 0.0888118
0.318629 0 0.09149209
0.4360937 0 0.09026176
0.5868874 0 0.08298393
0.8195791 0 0.05195413
1.170185 0 0
1.686877 0 0
0 0.08842696 0.08452076
0.0861876 0.0861876 0.0861876
0.2048727 0.073457 0.08858018
0.3199375 0.007398686 0.08895336
0.437502 0 0.08625345
0.5881738 0 0.07716885
0.8206482 0 0.03756427
1.171021 0 0
1.684977 0 0
0 0.1877677 0.08125577
0 0.1869324 0.08097743
0.1873037 0.1833485 0.07969908
0.3154793 0.1744852 0.07640491
0.4372009 0.1568191 0.06977157
0.5896606 0.1104369 0.05293507
0.8227733 0 0
1.173083 0 0
1.678136 0 0
0 0.2920455 0.05040018
0 0.2915216 0.04858957
0.1154078 0.289581 0.04232674
0.2925425 0.2852741 0.02687325
0.4272729 0.2773419 0
0.5864938 0.2599946 0
0.8233992 0.2084341 0
1.1752 0 0
1.663802 0 0
0 0.3996239 0
0 0.3992357 0
0 0.3979043 0
0.236022 0.3951754 0
0.400886 0.3904077 0
0.5741816 0.3804208 0
0.8197096 0.3534089 0
1.175857 0.2688194 0
1.639748 0 0
0 0.537747 0
0 0.5374503 0
0 0.5364831 0
0 0.5346263 0
0.3306199 0.5315531 0
0.5398676 0.5253814 0
0.8052841 0.5094033 0
1.172299 0.4646704 0
1.594898 0.2938535 0
0 0.7509034 0
0 0.750682 0
0 0.7499854 0
0 0.74872 0
0 0.7467394 0
0.4246226 0.7429634 0
0.7542376 0.7336683 0
1.117103 0.6873222 0
1.5008 0.5653064 0
0 1.016797 0
0 1.01566 0
0 1.012236 0
0 1.006494 0
0 0.9983992 0
0 0.9849228 0
0.5177419 0.9577777 0
0.9298927 0.9043018 0
1.327551 0.8044284 0
0 1.18575 0
0 1.184781 0
0 1.181883 0
0 1.177081 0
0 1.17042 0
0 1.159552 0
0 1.138239 0
0.5742097 1.097434 0
1.051638 1.022557 0
0 0 0.1494341
0.09334389 0 0.1596174
0.2043394 0 0.1729895
0.3185367 0 0.1826682
0.4360729 0 0.1891764
0.5868931 0 0.1937739
0.8195942 0 0.1943961
1.1702 0 0.1820085
1.686244 0 0.1222193
0 0.0892631 0.1672131
0.07820386 0.08647722 0.1707703
0.2031801 0.0727313 0.1778911
0.3193181 0 0.1845641
0.4372244 0 0.1895284
0.5880547 0 0.1930456
0.8206096 0 0.1927245
1.171015 0 0.1793164
1.68429 0 0.1163727
0 0.1883567 0.1800362
0 0.1874161 0.1810702
0.1835867 0.1835867 0.1835867
0.3139347 0.1744393 0.1864325
0.4363957 0.1564695 0.1886831
0.5892505 0.1094492 0.189862
0.822596 0 0.1871253
1.173018 0 0.1706801
1.677311 0 0.09623671
0 0.2924748 0.1817832
0 0.2919156 0.1820332
0.1062304 0.289882 0.1826219
0.2900348 0.285451 0.183156
0.4259241 0.2773851 0.1831829
0.5857523 0.259867 0.181894
0.8230428 0.2079882 0.1758901
1.175051 0 0.1541217
1.662816 0 0.03973533
0 0.3999605 0.1730815
0 0.3995565 0.1729501
0 0.3981813 0.1724886
0.231968 0.3953889 0.1715129
0.3989723 0.3905473 0.1697656
0.5731164 0.3804629 0.1660381
0.8191667 0.3533016 0.1558481
1.175611 0.2684223 0.1244736
1.63863 0 0
0 0.5380124 0.1433612
0 0.5377085 0.1428427
0 0.5367204 0.1412386
0 0.5348318 0.1384032
0.3276387 0.5317191 0.1340883
0.5383805 0.5254918 0.1260141
0.8045138 0.509426 0.1054396
1.171927 0.4645615 0
1.593691 0.2932705 0
0 0.7511056 0
0 0.7508812 0
0 0.7501758 0
0 0.7488964 0
0 0.7468975 0
0.4221103 0.7430942 0
0.7531151 0.7337526 0
1.115879 0.686913 0
1.499603 0.5648591 0
0 1.016275 0
0 1.015136 0
0 1.011708 0
0 1.005961 0
0 0.9978609 0
0 0.9843803 0
0.5155966 0.9572387 0
0.9285954 0.9037931 0
1.326511 0.8039987 0
0 1.18524 0
0 1.184272 0
0 1.181377 0
0 1.17658 0
0 1.169925 0
0 1.159068 0
0 1.137775 0
0.5728621 1.097008 0
1.050817 1.022192 0
0 0 0.2325676
0.08460794 0 0.2409882
0.2027083 0 0.2559075
0.318018 0 0.2692274
0.4358685 0 0.279879
0.5868226 0 0.2899106
0.8195855 0 0.2994024
1.170213 0 0.3034093
1.685157 0 0.2891375
0 0.0899727 0.2494245
0.06000723 0.08652208 0.2537036
0.1997736 0.07129562 0.2631175
0.318025 0 0.273152
0.436625 0 0.2819751
0.5877863 0 0.2907217
0.8205139 0 0.2991939
1.170993 0 0.3024328
1.683114 0 0.2870143
0 0.1892007 0.2690123
0 0.1881047 0.270691
0.176936 0.1839049 0.2750154
0.3112076 0.1743142 0.2805513
0.4349665 0.1558534 0.2861204
0.5885164 0.1077549 0.2921412
0.822275 0 0.2981344
1.172899 0 0.2992965
1.675913 0 0.2803702
0 0.2931437 0.2801943
0 0.2925291 0.2809317
0.08807691 0.2903486 0.282939
0.28572 0.28572 0.28572
0.4236149 0.2774386 0.2887183
0.5844809 0.259642 0.2920843
0.8224294 0.2072349 0.2951551
1.174793 0 0.2934139
1.661157 0 0.2685251
0 0.4005007 0.2837784
0 0.4000713 0.2840902
0 0.3986253 0.2849471
0.2249555 0.3957303 0.2861421
0.3957247 0.3907684 0.2874035
0.5713136 0.3805246 0.2886596
0.8182468 0.3531176 0.2889518
1.175192 0.2677558 0.2838741
1.636758 0 0.2506338
0 0.5384452 0.27826
0 0.5381294 0.2782881
0 0.5371072 0.2783405
0 0.5351665 0.2783283
0.3225706 0.531989 0.2781217
0.5358759 0.5256706 0.2773569
0.8032184 0.5094602 0.2745139
1.1713 0.4643777 0.2648057
1.591678 0.2922973 0.2180992
0 0.7514387 0.246403
0 0.7512092 0.2461593
0 0.7504893 0.2454129
0 0.7491868 0.2441198
0 0.7471577 0.2422088
0.4178712 0.7433093 0.2387982
0.7512337 0.7338908 0.2310293
1.113832 0.6862273 0.2049123
1.49761 0.5641143 0.135815
0 1.015402 0.06234624
0 1.014261 0.0601083
0 1.010827 0.0527431
0 1.005071 0.03671138
0 0.9969626 0
0 0.9834758 0
0.512006 0.9563409 0
0.9264335 0.9029465 0
1.32478 0.8032835 0
0 1.184393 0
0 1.183426 0
0 1.180536 0
0 1.175747 0
0 1.169103 0
0 1.158263 0
0 1.137004 0
0.5706122 1.096298 0
1.049449 1.021584 0
0 0 0.3183068
0.06370333 0 0.3253084
0.1988301 0 0.3399982
0.3166379 0 0.3551439
0.4352597 0 0.3684818
0.5865656 0 0.3822654
0.8195049 0 0.3976775
1.170204 0 0.4110424
1.683568 0 0.4127738
0 0.09005777 0.333442
0 0.08593169 0.337854
0.1939108 0.06885509 0.3482467
0.3157255 0 0.3602736
0.4355211 0 0.3716777
0.5872713 0 0.3840248
0.8203164 0 0.398277
1.170936 0 0.4108132
1.681407 0 0.41128
0 0.1901377 0.3561777
0 0.1888571 0.3582597
0.1665807 0.1842036 0.3637548
0.3070795 0.174045 0.3710963
0.4327902 0.1549236 0.3789227
0.5873865 0.1052781 0.3881817
0.8217735 0 0.3996198
1.172709 0 0.4099482
1.673909 0 0.4065291
0 0.2939903 0.3730681
0 0.2933044 0.374129
0.04871798 0.2909335 0.377075
0.2793871 0.2860453 0.3813277
0.4202546 0.2774764 0.3862303
0.5826279 0.2593015 0.3924574
0.8215303 0.2061587 0.400621
1.174412 0 0.4079713
1.658806 0 0.3979134
0 0.4012152 0.3834918
0 0.400752 0.3840658
0 0.3992117 0.3856943
0.2145429 0.3961788 0.3881313
0.3910547 0.3910547 0.3910547
0.5687319 0.3805941 0.3949108
0.8169278 0.3528489 0.4000764
1.17459 0.2668126 0.4042287
1.634123 0 0.3848833
0 0.5390314 0.3883771
0 0.5386995 0.3886342
0 0.537631 0.3893685
0 0.5356193 0.3904777
0.3152561 0.5323534 0.3918146
0.5323142 0.52591 0.3935529
0.8013804 0.5095007 0.3956458
1.17041 0.4641158 0.395939
1.588855 0.2909317 0.3620028
0 0.7518967 0.3795967
0 0.7516604 0.3796064
0 0.7509204 0.3796222
0 0.749586 0.3796061
0 0.7475154 0.3794992
0.4118241 0.7436047 0.3791231
0.7485771 0.7340799 0.3777065
1.110953 0.6852597 0.3601516
1.494823 0.5630727 0.3140726
0 1.014175 0.3085793
0 1.013031 0.3080737
0 1.009589 0.3065531
0 1.003822 0.3040079
0 0.995703 0.3004266
0 0.9822088 0.2944727
0.5069469 0.9550848 0.2824589
0.9234078 0.9017633 0.2584428
1.322361 0.8022846 0.2108989
0 1.183209 0
0 1.182244 0
0 1.17936 0
0 1.174583 0
0 1.167953 0
0 1.157138 0
0 1.135926 0
0.5674537 1.095305 0
1.047536 1.020735 0
0 0 0.4283754
0 0 0.4340996
0.1892849 0 0.4476626
0.3129883 0 0.4635373
0.4335324 0 0.4788507
0.5857698 0 0.4959006
0.819205 0 0.5167978
1.170121 0 0.5386259
1.680779 0 0.552184
0 0.08878451 0.4414409
0 0.08380537 0.4456588
0.1816458 0.06377284 0.4562367
0.3108366 0 0.4694818
0.4330898 0 0.4829329
0.5860902 0 0.4984759
0.8198346 0 0.5180857
1.170776 0 0.5389786
1.678436 0 0.5509571
0 0.1911911 0.4654067
0 0.1896634 0.4677688
0.1461864 0.18438 0.474142
0.2994851 0.1733849 0.4829656
0.4287689 0.153223 0.4927727
0.5852699 0.1008936 0.5049895
0.8208155 0 0.5214477
1.172337 0 0.5398525
1.670482 0 0.5469679
0 0.2951864 0.4867493
0 0.2943959 0.4880945
0 0.2917428 0.491874
0.2681192 0.2864627 0.4974538
0.4143746 0.2774503 0.5040942
0.5793816 0.2586762 0.5129411
0.8199432 0.2043236 0.5256951
1.173732 0 0.5407624
1.654845 0 0.5395284
0 0.4022977 0.5029146
0 0.4017826 0.5037254
0 0.4000967 0.5060511
0.1954866 0.3968499 0.509608
0.3830052 0.3914715 0.5140221
0.5643151 0.3806671 0.5201815
0.8146679 0.3523772 0.5295365
1.173553 0.2652263 0.5410716
1.629727 0 0.5280473
0 0.539953 0.5161009
0 0.5395956 0.5165517
0 0.5384538 0.5178606
0 0.5363295 0.519907
0.3025453 0.5329226 0.5225174
0.526279 0.526279 0.526279
0.798278 0.5095487 0.5322038
1.168905 0.4636708 0.5396222
1.584178 0.2886649 0.5077472
0 0.7526336 0.5226702
0 0.7523863 0.5228469
0 0.7516139 0.5233618
0 0.7502282 0.5241716
0 0.7480903 0.5252098
0.4015169 0.7440787 0.5267038
0.743685 0.7339473 0.5286708
1.106158 0.6836411 0.5121785
1.490222 0.5613531 0.4661585
0 1.012135 0.4760861
0 1.010986 0.475603
0 1.007532 0.4741494
0 1.001749 0.4717146
0 0.9936149 0.4682873
0 0.9801116 0.4625941
0.4984925 0.9530098 0.4511659
0.9184048 0.8998119 0.4287848
1.318369 0.8006378 0.3874831
0 1.181257 0.3111139
0 1.180296 0.3107196
0 1.177423 0.3095389
0 1.172664 0.3075784
0 1.166059 0.3048486
0 1.155284 0.3003703
0 1.134149 0.2914926
0.5622064 1.09367 0.2740954
1.044376 1.019335 0.2404116
0 0 0.5982238
0 0 0.6026943
0.1597528 0 0.6143428
0.3016337 0 0.6297145
0.4278299 0 0.646111
0.5829512 0 0.6659685
0.8180241 0 0.6925223
1.169709 0 0.7236685
1.674627 0 0.7474876
0 0.08296925 0.6088613
0 0.07646134 0.612586
0.1463679 0.04884128 0.622512
0.2975522 0 0.6360315
0.4262597 0 0.6508783
0.5826162 0 0.6693101
0.8183249 0 0.6945124
1.170219 0 0.724605
1.671966 0 0.7462937
0 0.1919673 0.6320954
0 0.1900719 0.6345844
0.08040433 0.1838006 0.6414724
0.2813653 0.1713734 0.6514066
0.4192223 0.1492323 0.6629645
0.5801578 0.09080701 0.6781086
0.8184351 0 0.6999365
1.171374 0 0.7272101
1.66321 0 0.7423676
0 0.2969553 0.6567046
0 0.295992 0.6583054
0 0.2928644 0.6628573
0.2420209 0.2869057 0.6697233
0.4013448 0.2770971 0.6781259
0.5721994 0.2571996 0.6897376
0.816391 0.2004242 0.707485
1.172182 0 0.7309458
1.646636 0 0.7349395
0 0.404142 0.6782909
0 0.403535 0.679348
0 0.4015899 0.6824031
0.1463601 0.3979572 0.6871452
0.3655145 0.3921129 0.6931558
0.5548841 0.3806662 0.7018082
0.809836 0.3513288 0.7157138
1.171315 0.2619364 0.7351131
1.62076 0 0.7233481
0 0.5416379 0.6997269
0 0.5412332 0.7003855
0 0.539955 0.7023108
0 0.5376202 0.7053624
0.2742316 0.5339481 0.709337
0.5135816 0.5269247 0.7152565
0.7918057 0.5095771 0.7252168
1.165757 0.4627318 0.7398822
1.574743 0.2840761 0.7027395
0 0.7540412 0.720732
0 0.7537727 0.7210745
0 0.7529382 0.722084
0 0.7514534 0.7237084
0 0.7491858 0.7258675
0.3795079 0.7449789 0.7291707
0.732436 0.732436 0.732436
1.096401 0.6803242 0.7135806
1.481 0.5579066 0.6607625
0 1.007994 0.6845641
0 1.006838 0.6840106
0 1.003364 0.6823447
0 0.9975565 0.6795541
0 0.9894008 0.6756259
0 0.9758903 0.6691026
0.4811377 0.9488468 0.6560267
0.9083481 0.895908 0.6305555
1.310376 0.7973463 0.58434
0 1.177358 0.5306418
0 1.176405 0.5302341
0 1.173553 0.5290148
0 1.16883 0.5269951
0 1.162275 0.5241936
0 1.151579 0.5196245
0 1.130598 0.5106701
0.5515607 1.0904 0.4935492
1.038033 1.016534 0.4622252
0 0 0.8541403
0 0 0.8575246
0 0 0.866915
0.2657329 0 0.880525
0.4094514 0 0.8964697
0.5733182 0 0.9175741
0.8136312 0 0.9485562
1.16797 0 0.9887792
1.660473 0 1.016331
0 0.06057953 0.8624132
0 0.04845433 0.8654721
0 0 0.8740228
0.2583359 0 0.8865658
0.4061962 0 0.9014543
0.5719714 0 0.9214244
0.8133831 0 0.9511582
1.168219 0 0.9902759
1.657323 0 1.014835
0 0.1901414 0.8829915
0 0.1877356 0.885369
0 0.1799925 0.8921192
0.2318727 0.1651472 0.9022811
0.3946828 0.1390599 0.9147046
0.5668619 0.06214732 0.9319004
0.8120122 0 0.9584197
1.168643 0 0.9945423
1.64734 0 1.010018
0 0.2986252 0.9084145
0 0.2974061 0.9101506
0 0.2935583 0.9151522
0.1675184 0.2865225 0.9228743
0.370134 0.2753748 0.9326076
0.5552926 0.2534434 0.9465577
0.8079096 0.1917256 0.9689994
1.168376 0 1.000986
1.629337 0 1.001145
0 0.4067562 0.9337947
0 0.4060009 0.9350535
0 0.4036328 0.9387187
0 0.3993581 0.9444872
0.324194 0.3927177 0.9519381
0.5337158 0.3801347 0.9629408
0.7990199 0.348847 0.9813494
1.166233 0.2549115 1.008828
1.602335 0 0.9875952
0 0.5444289 0.9624134
0 0.5439421 0.9632726
0 0.5424263 0.9657963
0 0.5397213 0.9698328
0.1995852 0.5355777 0.9751594
0.4856298 0.527868 0.9832465
0.7778652 0.5093773 0.99732
1.156737 0.4597915 1.01747
1.555707 0.2747306 0.9638947
0 0.7565927 0.996825
0 0.7562851 0.9973352
0 0.7553359 0.9988446
0 0.7536681 1.001292
0 0.7511594 1.004584
0.3286721 0.7465877 1.009712
0.7081551 0.7283101 1.008458
1.076412 0.6734575 0.9823664
1.462594 0.551028 0.9163268
0 0.9995578 0.955403
0 0.9983931 0.9547026
0 0.9948965 0.9525975
0 0.9890631 0.9490785
0 0.9808939 0.9441391
0 0.9674066 0.9359668
0.4445983 0.9405279 0.9196701
0.8881448 0.8881448 0.8881448
1.294447 0.7908098 0.8314779
0 1.169621 0.7845807
0 1.168682 0.7840839
0 1.165874 0.7825987
0 1.161221 0.7801401
0 1.154764 0.7767327
0 1.144226 0.7711837
0 1.123548 0.7603386
0.5297459 1.083905 0.73972
1.025332 1.010962 0.7024517
0 0 1.234498
0 0 1.237013
0 0 1.244253
0.1072264 0 1.255421
0.3497427 0 1.269486
0.5418638 0 1.289651
0.79833 0 1.322195
1.161318 0 1.36914
1.627243 0 1.37759
0 0 1.240742
0 0 1.243126
0 0 1.250006
0.06987863 0 1.260657
0.3435472 0 1.274137
0.5390391 0 1.293572
0.7972541 0 1.325164
1.161136 0 1.371104
1.623524 0 1.37535
0 0.1786593 1.257637
0 0.1754587 1.259701
0 0.1652161 1.265688
0 0.1455106 1.275047
0.3230369 0.1089172 1.287033
0.5297857 0 1.304568
0.7935828 0 1.33361
1.16034 0 1.376775
1.612122 0 1.368414
0 0.2971888 1.281148
0 0.2956235 1.282836
0 0.2907675 1.287763
0 0.2821277 1.295552
0.2812714 0.2688134 1.305675
0.5118909 0.2431991 1.320754
0.786115 0.1704163 1.346352
1.158244 0 1.385559
1.592519 0 1.356312
0 0.4088662 1.307459
0 0.4078978 1.308806
0 0.4049121 1.312756
0 0.3996712 1.319066
0.1963428 0.3917837 1.32738
0.4817638 0.3773212 1.339986
0.7731616 0.3425217 1.361928
1.153871 0.2390355 1.396649
1.564378 0 1.338705
0 0.5481304 1.340558
0 0.5475149 1.341566
0 0.5456237 1.34454
0 0.5423262 1.349337
0 0.537413 1.355746
0.4175437 0.5285532 1.365646
0.7461475 0.5080662 1.383364
1.124737 0.4484176 1.389334
1.517473 0.2554607 1.309076
0 0.760744 1.385964
0 0.7603695 1.386629
0 0.7592233 1.388602
0 0.7572393 1.391817
0 0.753002 1.39375
0.1645992 0.7424185 1.390527
0.65409 0.7170985 1.376927
1.035263 0.6591758 1.337182
1.426199 0.537429 1.251369
0 0.9823989 1.308386
0 0.9812336 1.30746
0 0.9777404 1.304683
0 0.9719284 1.30006
0 0.9638182 1.293605
0 0.950488 1.282998
0.3617194 0.9240766 1.262042
0.8475778 0.8729029 1.221934
1.262989 0.7779957 1.150466
0 1.154476 1.103478
0 1.153565 1.10285
0 1.15084 1.100972
0 1.146324 1.097865
0 1.140056 1.093558
0 1.129824 1.086548
0 1.109731 1.072856
0.4838975 1.071158 1.046859
1 1 1
