lut3d_utils/data/hlg_bt2020_to_bt709_33x33x33.cube
LUT_3D_SIZE 33
0 0 0
0.0211828 0 0
0.0451211 0 0
0.07022297 0 0
0.09611164 0 0
0.1226016 0 0
0.1495807 0 0
0.1769736 0 0
0.2047257 0 0
0.2327958 0 0
0.2611514 0 0
0.2897664 0 0
0.3186192 0 0
0.3476916 0 0
0.3769682 0 0
0.4064358 0 0
0.4360825 0 0
0.4676246 0 0
0.5030179 0 0
0.5426342 0 0
0.5868772 0 0
0.6361875 0 0
0.6910464 0 0
0.7519812 0 0
0.8195706 0 0
0.8944502 0 0
0.9773189 0 0
1.068946 0 0
1.170178 0 0
1.281947 0 0
1.40528 0 0
1.541306 0 0
1.687084 0 0
0 0.01940626 0
0.01950383 0.01896181 0
0.04526365 0.01623764 0
0.07055285 0.002809206 0
0.0964417 0 0
0.1229024 0 0
0.1498508 0 0
0.1772165 0 0
0.2049456 0 0
0.2329963 0 0
0.2613356 0 0
0.2899366 0 0
0.3187774 0 0
0.3478394 0 0
0.3771069 0 0
0.4065664 0 0
0.436206 0 0
0.4677413 0 0
0.503128 0 0
0.5427377 0 0
0.5869743 0 0
0.6362784 0 0
0.6911314 0 0
0.7520605 0 0
0.8196445 0 0
0.8945189 0 0
0.9773828 0 0
1.069005 0 0
1.170233 0 0
1.281998 0 0
1.405327 0 0
1.54135 0 0
1.686973 0 0
0 0.04133692 0
0 0.04116108 0
0.04154475 0.04039022 0
0.06964097 0.03845839 0
0.0964153 0.03458752 0
0.1232074 0.02726026 0
0.1502834 0.00598384 0
0.1776927 0 0
0.2054287 0 0
0.2334698 0 0
0.2617923 0 0
0.2903738 0 0
0.3191944 0 0
0.3482368 0 0
0.3774857 0 0
0.4069276 0 0
0.436551 0 0
0.4680703 0 0
0.5034407 0 0
0.5430338 0 0
0.587254 0 0
0.6365418 0 0
0.6913787 0 0
0.7522923 0 0
0.8198613 0 0
0.8947213 0 0
0.9775715 0 0
1.069181 0 0
1.170396 0 0
1.28215 0 0
1.405468 0 0
1.54148 0 0
1.686634 0 0
0 0.06433357 0
0 0.06422078 0
0.02606398 0.06380011 0
0.06465703 0.06286021 0
0.09426773 0.06112196 0
0.1223306 0.05825683 0
0.1500533 0.05382932 0
0.1778114 0.04710379 0
0.2057407 0.03632157 0
0.2338894 0.009312784 0
0.2622701 0 0
0.2908809 0 0
0.3197133 0 0
0.3487569 0 0
0.3780004 0 0
0.4074332 0 0
0.4370451 0 0
0.4685509 0 0
0.5039056 0 0
0.5434812 0 0
0.5876823 0 0
0.63695 0 0
0.6917662 0 0
0.7526588 0 0
0.8202067 0 0
0.895046 0 0
0.9778758 0 0
1.069466 0 0
1.170662 0 0
1.282398 0 0
1.405698 0 0
1.541695 0 0
1.686053 0 0
0 0.08805103 0
0 0.08796665 0
0 0.08767649 0
0.05231125 0.08707978 0
0.08849374 0.08603449 0
0.1192068 0.08437573 0
0.148341 0.08191954 0
0.1769295 0.07844855 0
0.2053725 0.07367425 0
0.2338486 0.06715311 0
0.2624419 0.0580666 0
0.291192 0.04439388 0
0.3201159 0.01274607 0
0.3492189 0 0
0.3785001 0 0
0.4079557 0 0
0.4375801 0 0
0.4690914 0 0
0.5044456 0 0
0.5440155 0 0
0.5882062 0 0
0.6374597 0 0
0.6922586 0 0
0.7531314 0 0
0.8206579 0 0
0.8954746 0 0
0.9782814 0 0
1.069848 0 0
1.171022 0 0
1.282734 0 0
1.406013 0 0
1.541989 0 0
1.685203 0 0
0 0.1123193 0
0 0.1122514 0
0 0.1120278 0
0.01332127 0.1115933 0
0.0772042 0.1108659 0
0.112884 0.109747 0
0.1444573 0.1081277 0
0.1744896 0.1058896 0
0.2038588 0.1029 0
0.2329556 0.09899946 0
0.2619765 0.09398007 0
0.2910265 0.08754268 0
0.3201635 0.07920509 0
0.3494192 0.06805797 0
0.3788103 0.05184415 0
0.408345 0.01625909 0
0.4380261 0 0
0.4695795 0 0
0.5049651 0 0
0.5445559 0 0
0.5887583 0 0
0.6380149 0 0
0.6928098 0 0
0.7536727 0 0
0.8211844 0 0
0.8959828 0 0
0.9787686 0 0
1.070312 0 0
1.171462 0 0
1.28315 0 0
1.406405 0 0
1.542356 0 0
1.684055 0 0
0 0.1370358 0
0 0.1369787 0
0 0.1367955 0
0 0.1364529 0
0.05551842 0.1358995 0
0.1021106 0.1350716 0
0.1377248 0.1338974 0
0.1700007 0.1322994 0
0.200798 0.1301948 0
0.2308664 0.1274932 0
0.2605741 0.1240918 0
0.2901219 0.1198671 0
0.3196258 0.1146609 0
0.3491554 0.108257 0
0.378753 0.1003349 0
0.4084442 0.09037034 0
0.4382446 0.07736793 0
0.4698938 0.0574985 0
0.5053583 0 0
0.5450119 0 0
0.5892613 0 0
0.6385508 0 0
0.6933659 0 0
0.754238 0 0
0.8217498 0 0
0.8965409 0 0
0.9793134 0 0
1.070839 0 0
1.171968 0 0
1.283633 0 0
1.406863 0 0
1.54279 0 0
1.682568 0 0
0 0.1621313 0
0 0.1620819 0
0 0.161926 0
0 0.161642 0
0 0.1611957 0
0.08435132 0.1605438 0
0.1272444 0.1596361 0
0.1629465 0.1584182 0
0.1958151 0.1568319 0
0.2272746 0.1548161 0
0.2579703 0.1523049 0
0.288244 0.1492257 0
0.3182935 0.1454954 0
0.3482397 0.1410146 0
0.3781592 0.1356589 0
0.4081015 0.1292638 0
0.4380991 0.1216003 0
0.4699118 0.1117299 0
0.5055172 0.09773146 0
0.5452886 0.07588246 0
0.5896335 0.02285691 0
0.6389974 0 0
0.6938676 0 0
0.7547778 0 0
0.822313 0 0
0.8971149 0 0
0.9798882 0 0
1.071407 0 0
1.172522 0 0
1.284169 0 0
1.407377 0 0
1.54328 0 0
1.680701 0 0
0 0.1875559 0
0 0.1875123 0
0 0.1873762 0
0 0.1871327 0
0 0.1867581 0
0.05033865 0.1862216 0
0.1114273 0.1854871 0
0.1526462 0.1845143 0
0.1884989 0.1832605 0
0.2218796 0.1816806 0
0.2539203 0.1797272 0
0.2851816 0.1773502 0
0.3159785 0.1744953 0
0.3465021 0.1711023 0
0.3768744 0.1671018 0
0.4071757 0.1624121 0
0.4374603 0.1569322 0
0.4695161 0.1501321 0
0.5053359 0.1410768 0
0.545292 0.1286659 0
0.5897922 0.1107614 0
0.6392828 0.08168743 0
0.6942533 0 0
0.7552397 0 0
0.8228298 0 0
0.8976683 0 0
0.9804628 0 0
1.07199 0 0
1.173103 0 0
1.284741 0 0
1.407934 0 0
1.543816 0 0
1.678409 0 0
0 0.2132719 0
0 0.2132327 0
0 0.2131117 0
0 0.2128979 0
0 0.2125744 0
0 0.2121186 0
0.08640456 0.2115034 0
0.1380003 0.2106986 0
0.1783144 0.2096715 0
0.2143442 0.2083875 0
0.2481752 0.2068105 0
0.2807323 0.2049029 0
0.3125064 0.2026251 0
0.3437873 0.1999346 0
0.3747574 0.1967857 0
0.4055373 0.1931269 0
0.4362092 0.1888996 0
0.4685973 0.183733 0
0.5047146 0.1770055 0
0.544932 0.1681132 0
0.5896566 0.1560954 0
0.6393358 0.1392445 0
0.6944607 0.1138325 0
0.7555699 0.06598925 0
0.8232544 0 0
0.8981624 0 0
0.9810048 0 0
1.072562 0 0
1.17369 0 0
1.285331 0 0
1.408518 0 0
1.544387 0 0
1.675647 0 0
0 0.2392494 0
0 0.2392139 0
0 0.2391046 0
0 0.2389138 0
0 0.2386284 0
0 0.2382317 0
0.02837541 0.2377029 0
0.1168137 0.2370186 0
0.1644513 0.2361534 0
0.2042357 0.2350801 0
0.2404523 0.2337701 0
0.2746853 0.2321939 0
0.3077059 0.2303208 0
0.3399478 0.2281187 0
0.3716771 0.2255536 0
0.4030673 0.2225891 0
0.4342359 0.2191854 0
0.4670538 0.215058 0
0.5035601 0.2097419 0
0.5441233 0.2028273 0
0.5891498 0.1937149 0
0.6390874 0.1814758 0
0.6944287 0.1645287 0
0.755715 0.139699 0
0.8235407 0.09781493 0
0.8985576 0 0
0.9814808 0 0
1.073095 0 0
1.17426 0 0
1.285921 0 0
1.409114 0 0
1.54498 0 0
1.672372 0 0
0 0.2654645 0
0 0.265432 0
0 0.2653324 0
0 0.2651596 0
0 0.2649039 0
0 0.2645521 0
0 0.2640882 0
0.08279616 0.2634939 0
0.1454795 0.2627487 0
0.1909303 0.2618309 0
0.230394 0.2607176 0
0.2667992 0.2593849 0
0.301395 0.2578081 0
0.3348356 0.2559616 0
0.3675065 0.2538189 0
0.3996526 0.2513521 0
0.4314379 0.2485315 0
0.4647915 0.2451277 0
0.5017858 0.240771 0
0.5427867 0.2351534 0
0.5881994 0.2278442 0
0.6384719 0.2182182 0
0.6940985 0.2053187 0
0.7556228 0.1875507 0
0.8236427 0.1618311 0
0.8988142 0.120057 0
0.9818569 0 0
1.07356 0 0
1.174788 0 0
1.28649 0 0
1.409707 0 0
1.545581 0 0
1.668544 0 0
0 0.2918975 0
0 0.2918675 0
0 0.2917758 0
0 0.2916178 0
0 0.2913857 0
0 0.2910693 0
0 0.2906558 0
0 0.2901305 0
0.1182588 0.2894771 0
0.1734167 0.2886777 0
0.217504 0.2877136 0
0.2567734 0.2865653 0
0.2933651 0.2852125 0
0.3282916 0.2836341 0
0.3621155 0.2818086 0
0.3951818 0.2797135 0
0.4277163 0.2773256 0
0.4617212 0.2744537 0
0.4993105 0.2707931 0
0.5408478 0.2660986 0
0.5867374 0.2600359 0
0.6374276 0.2521376 0
0.693414 0.2417283 0
0.755243 0.227778 0
0.823516 0.2085817 0
0.8988932 0.1808831 0
0.9820991 0.1363617 0
1.073928 0 0
1.175249 0 0
1.287017 0 0
1.410278 0 0
1.546178 0 0
1.66413 0 0
0 0.3185317 0
0 0.3185038 0
0 0.3184188 0
0 0.3182731 0
0 0.3180604 0
0 0.3177725 0
0 0.3173991 0
0 0.3169284 0
0.0714918 0.3163468 0
0.1497885 0.3156399 0
0.2010268 0.314792 0
0.244203 0.3137869 0
0.2833594 0.3126077 0
0.3201332 0.3112367 0
0.3553634 0.3096561 0
0.3895396 0.3078472 0
0.4229722 0.305791 0
0.4577558 0.3033249 0
0.4960564 0.3001911 0
0.5382363 0.2961874 0
0.5846999 0.2910421 0
0.6358961 0.2843841 0
0.6923223 0.2756946 0
0.7545277 0.2642222 0
0.8231175 0.2488201 0
0.8987564 0.2275825 0
0.9821739 0.1968467 0
1.07417 0.1471083 0
1.17562 0 0
1.287483 0 0
1.41081 0 0
1.545215 0 0
1.659099 0 0
0 0.345353 0
0 0.3453269 0
0 0.3452477 0
0 0.3451123 0
0 0.3449157 0
0 0.3446513 0
0 0.3443107 0
0 0.3438839 0
0 0.3433601 0
0.11538 0.3427269 0
0.1796752 0.3419714 0
0.2285006 0.3410799 0
0.2710409 0.3400381 0
0.3101386 0.3388311 0
0.3470894 0.3374437 0
0.3826005 0.3358604 0
0.4171023 0.3340649 0
0.4528074 0.3319167 0
0.4919469 0.3291937 0
0.5348846 0.3257251 0
0.582026 0.3212833 0
0.6338222 0.315562 0
0.6907731 0.3081419 0
0.7534313 0.2984352 0
0.822406 0.2855868 0
0.8983668 0.2682814 0
0.9820488 0.2443067 0
1.074257 0.2093128 0
1.175874 0.1513634 0
1.287865 0 0
1.411286 0 0
1.542093 0 0
1.65343 0 0
0 0.3723492 0
0 0.3723247 0
0 0.3722504 0
0 0.3721239 0
0 0.3719411 0
0 0.3716963 0
0 0.3713828 0
0 0.3709923 0
0 0.3705155 0
0.04416128 0.3699423 0
0.1508528 0.3692616 0
0.2087361 0.3684619 0
0.2559392 0.3675309 0
0.2980228 0.3664559 0
0.3370993 0.3652239 0
0.3742213 0.3638216 0
0.4099938 0.3622352 0
0.4467836 0.3603413 0
0.4869046 0.3579461 0
0.5307256 0.3549026 0
0.5786568 0.351016 0
0.6311531 0.3460268 0
0.6887187 0.339585 0
0.7519105 0.3312095 0
0.8213423 0.3202222 0
0.8976893 0.3056291 0
0.9816921 0.2858811 0
1.074162 0.2583169 0
1.175988 0.2174872 0
1.288142 0.1467469 0
1.411687 0 0
1.538127 0 0
1.647106 0 0
0 0.3995095 0
0 0.3994865 0
0 0.3994166 0
0 0.3992978 0
0 0.3991267 0
0 0.3988987 0
0 0.398608 0
0 0.3982478 0
0 0.3978101 0
0 0.3972865 0
0.1072255 0.3966674 0
0.1832473 0.395943 0
0.2373492 0.3951027 0
0.2833997 0.3941357 0
0.3251489 0.3930307 0
0.3642309 0.3917761 0
0.4015182 0.39036 0
0.4395833 0.388673 0
0.4808476 0.386544 0
0.5256914 0.3838447 0
0.5745339 0.3804059 0
0.6278377 0.3760037 0
0.6861134 0.3703386 0
0.749924 0.3630053 0
0.8198891 0.3534441 0
0.8966898 0.3408597 0
0.9810733 0.3240726 0
1.073858 0.3012103 0
1.175938 0.2689512 0
1.288294 0.2200549 0
1.411995 0.1275986 0
1.533294 0 0
1.64012 0 0
0 0.4284062 0
0 0.4283845 0
0 0.4283186 0
0 0.4282069 0
0 0.4280467 0
0 0.4278339 0
0 0.4275638 0
0 0.4272306 0
0 0.4268276 0
0 0.4263477 0
0 0.4257828 0
0.1459448 0.4251243 0
0.2125926 0.4243634 0
0.2645856 0.4234906 0
0.3100155 0.4224962 0
0.3516742 0.4213701 0
0.3908967 0.4201021 0
0.4305602 0.4185949 0
0.4732382 0.4166969 0
0.5193348 0.4142956 0
0.5692871 0.4112434 0
0.6235713 0.4073457 0
0.6827089 0.4023442 0
0.747272 0.3958925 0
0.8178883 0.3875198 0
0.8952464 0.3765724 0
0.9801011 0.3621133 0
1.073278 0.342733 0
1.175681 0.3161452 0
1.288295 0.2781358 0
1.4122 0.2187516 0
1.527225 0.08349776 0
1.632006 0 0
0 0.4608312 0
0 0.4608108 0
0 0.4607489 0
0 0.4606442 0
0 0.4604943 0
0 0.4602961 0
0 0.4600455 0
0 0.4597377 0
0 0.4593673 0
0 0.458928 0
0 0.4584132 0
0.06808383 0.4578157 0
0.1754582 0.4571278 0
0.2382706 0.4563415 0
0.2894551 0.4554484 0
0.3348556 0.4544401 0
0.3767698 0.4533076 0
0.4185955 0.4519646 0
0.4631482 0.4502773 0
0.5108828 0.4481476 0
0.562272 0.4454471 0
0.6178182 0.4420069 0
0.6780621 0.4376043 0
0.743591 0.4319427 0
0.8150451 0.4246238 0
0.8931238 0.4151042 0
0.9785915 0.4026248 0
1.072284 0.3860884 0
1.175113 0.3638229 0
1.288075 0.3330559 0
1.410011 0.288018 0
1.519298 0.2122655 0
1.622084 0 0
0 0.497125 0
0 0.4971058 0
0 0.4970477 0
0 0.4969497 0
0 0.4968099 0
0 0.4966255 0
0 0.4963933 0
0 0.4961094 0
0 0.4957692 0
0 0.4953675 0
0 0.4948987 0
0 0.4943569 0
0.1075252 0.4937356 0
0.199079 0.493028 0
0.2606132 0.492227 0
0.3118916 0.4913254 0
0.3577473 0.4903156 0
0.4026046 0.4891211 0
0.4497085 0.4876243 0
0.4996244 0.4857398 0
0.5528985 0.4833562 0
0.6100832 0.4803274 0
0.6717551 0.4764614 0
0.7385275 0.4715041 0
0.8110606 0.4651173 0
0.8900699 0.4568451 0
0.9763336 0.4460636 0
1.070699 0.4318965 0
1.174092 0.4130672 0
1.287518 0.387605 0
1.403151 0.3499487 0
1.509075 0.2924047 0
1.609986 0.2014463 0
0 0.5376575 0
0 0.5376395 0
0 0.5375852 0
0 0.5374937 0
0 0.5373633 0
0 0.5371921 0
0 0.5369772 0
0 0.5367154 0
0 0.5364031 0
0 0.5360359 0
0 0.5356092 0
0 0.535118 0
0 0.534557 0
0.129767 0.5339204 0
0.2175304 0.5332024 0
0.2794716 0.5323968 0
0.331604 0.5314971 0
0.3809548 0.5304359 0
0.4316663 0.5291097 0
0.484567 0.5274446 0
0.5403608 0.5253441 0
0.5997011 0.5226822 0
0.6632321 0.5192936 0
0.7316136 0.5149607 0
0.8055397 0.5093953 0
0.8857512 0.502213 0
0.9730467 0.4928949 0
1.068291 0.4807279 0
1.172423 0.4647064 0
1.286464 0.4433536 0
1.393127 0.4089618 0
1.496062 0.3610209 0
1.5953 0.2940477 0
0 0.5828323 0
0 0.5828155 0
0 0.5827647 0
0 0.5826794 0
0 0.5825581 0
0 0.5823992 0
0 0.5822004 0
0 0.5819592 0
0 0.5816725 0
0 0.5813369 0
0 0.5809484 0
0 0.580503 0
0 0.5799963 0
0 0.5794236 0
0.1409287 0.5787798 0
0.2304992 0.5780598 0
0.2943295 0.5772583 0
0.3509871 0.5763157 0
0.4071171 0.5751411 0
0.4642718 0.5736707 0
0.5235305 0.5718213 0
0.5857627 0.5694843 0
0.6517457 0.5665177 0
0.722227 0.5627351 0
0.7979598 0.5578908 0
0.8797273 0.5516592 0
0.9683594 0.5436054 0
1.064746 0.5331412 0
1.169846 0.5194558 0
1.276842 0.4983338 0
1.379304 0.4667428 0
1.479726 0.4247267 0
1.577569 0.3694887 0
0 0.6330903 0
0 0.6330746 0
0 0.6330273 0
0 0.6329478 0
0 0.6328351 0
0 0.6326878 0
0 0.6325041 0
0 0.6322819 0
0 0.6320187 0
0 0.6317118 0
0 0.6313579 0
0 0.6309538 0
0 0.6304958 0
0 0.62998 0
0 0.6294023 0
0.1400183 0.6287585 0
0.2368732 0.628044 0
0.3077569 0.6272062 0
0.372907 0.6261656 0
0.4365315 0.6248669 0
0.5007645 0.6232385 0
0.5669909 0.6211873 0
0.6362734 0.6185913 0
0.7095308 0.6152911 0
0.787626 0.611077 0
0.8714159 0.6056728 0
0.9617818 0.598712 0
1.059651 0.5897042 0
1.161953 0.5759723 0
1.261606 0.5537156 0
1.361048 0.52406 0
1.459512 0.4860136 0
1.556309 0.4379001 0
0 0.6889147 0
0 0.6889001 0
0 0.6888561 0
0 0.6887821 0
0 0.6886774 0
0 0.6885409 0
0 0.6883712 0
0 0.6881665 0
0 0.6879249 0
0 0.6876441 0
0 0.6873216 0
0 0.6869545 0
0 0.6865401 0
0 0.686075 0
0 0.685556 0
0 0.6849794 0
0.1206158 0.6843417 0
0.2393258 0.6835963 0
0.3229903 0.6826733 0
0.3976329 0.6815252 0
0.4695194 0.6800904 0
0.5415176 0.6782891 0
0.6153757 0.6760168 0
0.6923785 0.6731372 0
0.7736036 0.6694717 0
0.8600425 0.6647853 0
0.9526659 0.6587682 0
1.048078 0.6482967 0
1.1436 0.6316395 0
1.240407 0.6094993 0
1.337748 0.5812245 0
1.434862 0.5460118 0
1.531018 0.5027168 0
0 0.7508356 0
0 0.750822 0
0 0.750781 0
0 0.7507123 0
0 0.7506152 0
0 0.7504888 0
0 0.750332 0
0 0.7501435 0
0 0.7499216 0
0 0.7496645 0
0 0.7493702 0
0 0.7490364 0
0 0.7486609 0
0 0.7482409 0
0 0.7477738 0
0 0.7472566 0
0 0.7466864 0
0.06979228 0.746022 0
0.2417105 0.745202 0
0.3402473 0.7441854 0
0.425455 0.7429195 0
0.5064291 0.7413357 0
0.586938 0.7393448 0
0.6691531 0.7368303 0
0.7546107 0.73364 0
0.8429303 0.7281617 0
0.9322052 0.7182487 0
1.023843 0.7048641 0
1.11751 0.6874582 0
1.212714 0.6654645 0
1.308849 0.6382827 0
1.405242 0.6052324 0
1.501199 0.5654556 0
0 0.8194352 0
0 0.8194226 0
0 0.8193845 0
0 0.8193207 0
0 0.8192307 0
0 0.8191137 0
0 0.8189689 0
0 0.8187952 0
0 0.8185913 0
0 0.8183558 0
0 0.818087 0
0 0.8177831 0
0 0.8174423 0
0 0.8170623 0
0 0.8166411 0
0 0.8161763 0
0 0.8156654 0
0 0.8150719 0
0 0.8143419 0
0.2439794 0.8134399 0
0.3597646 0.8123207 0
0.4566868 0.8109256 0
0.5464844 0.8074717 0
0.6337679 0.8022926 0
0.7208973 0.7954395 0
0.8090112 0.7865287 0
0.8986955 0.7751344 0
0.9901716 0.7607964 0
1.083391 0.7430264 0
1.178097 0.7213129 0
1.273866 0.6951163 0
1.370163 0.6638491 0
1.46638 0.6268258 0
0 0.895354 0
0 0.8953423 0
0 0.8953069 0
0 0.8952477 0
0 0.8951643 0
0 0.8950561 0
0 0.8949224 0
0 0.8947624 0
0 0.8945749 0
0 0.894359 0
0 0.8939456 0
0 0.8930992 0
0 0.8921323 0
0 0.8910365 0
0 0.8898033 0
0 0.8884248 0
0 0.8868932 0
0 0.8850984 0
0 0.8828751 0
0 0.8801163 0
0.2426825 0.8766896 0
0.3752261 0.8724327 0
0.4811099 0.8671492 0
0.5776897 0.8606049 0
0.670556 0.8525253 0
0.7622767 0.8425941 0
0.8541935 0.8304554 0
0.9470051 0.815716 0
1.041006 0.797951 0
1.136205 0.7767076 0
1.232392 0.7515067 0
1.329197 0.7218351 0
1.426131 0.6871215 0
0 0.9621265 0
0 0.9620668 0
0 0.9618878 0
0 0.9615886 0
0 0.9611683 0
0 0.9606254 0
0 0.9599581 0
0 0.9591644 0
0 0.9582418 0
