lut3d_utils/data/hlg_bt2020_to_bt709_33x33x33.cube
LUT_3D_SIZE 5
0 0 0
0.2047257 0 0
0.4360825 0 0
0.8195706 0 0
1.687084 0 0
0 0.1875559 0
0.1884989 0.1832605 0
0.4374603 0.1569322 0
0.8228298 0 0
1.678409 0 0
0 0.3995095 0
0 0.3978101 0
0.4015182 0.39036 0
0.8198891 0.3534441 0
1.64012 0 0
0 0.7508356 0
0 0.7499216 0
0 0.7466864 0
0.7546107 0.73364 0
1.501199 0.5654556 0
0 1.18592 0
0 1.182051 0
0 1.170585 0
0 1.138394 0
1.051911 1.022679 0
0 0 0.1494341
0.2043394 0 0.1729895
0.4360729 0 0.1891764
0.8195942 0 0.1943961
1.686244 0 0.1222193
0 0.1883567 0.1800362
0.1835867 0.1835867 0.1835867
0.4363957 0.1564695 0.1886831
0.822596 0 0.1871253
1.677311 0 0.09623671
0 0.3999605 0.1730815
0 0.3981813 0.1724886
0.3989723 0.3905473 0.1697656
0.8191667 0.3533016 0.1558481
1.63863 0 0
0 0.7511056 0
0 0.7501758 0
0 0.7468975 0
0.7531151 0.7337526 0
1.499603 0.5648591 0
0 1.18524 0
0 1.181377 0
0 1.169925 0
0 1.137775 0
1.050817 1.022192 0
0 0 0.3183068
0.1988301 0 0.3399982
0.4352597 0 0.3684818
0.8195049 0 0.3976775
1.683568 0 0.4127738
0 0.1901377 0.3561777
0.1665807 0.1842036 0.3637548
0.4327902 0.1549236 0.3789227
0.8217735 0 0.3996198
1.673909 0 0.4065291
0 0.4012152 0.3834918
0 0.3992117 0.3856943
0.3910547 0.3910547 0.3910547
0.8169278 0.3528489 0.4000764
1.634123 0 0.3848833
0 0.7518967 0.3795967
0 0.7509204 0.3796222
0 0.7475154 0.3794992
0.7485771 0.7340799 0.3777065
1.494823 0.5630727 0.3140726
0 1.183209 0
0 1.17936 0
0 1.167953 0
0 1.135926 0
1.047536 1.020735 0
0 0 0.5982238
0.1597528 0 0.6143428
0.4278299 0 0.646111
0.8180241 0 0.6925223
1.674627 0 0.7474876
0 0.1919673 0.6320954
0.08040433 0.1838006 0.6414724
0.4192223 0.1492323 0.6629645
0.8184351 0 0.6999365
1.66321 0 0.7423676
0 0.404142 0.6782909
0 0.4015899 0.6824031
0.3655145 0.3921129 0.6931558
0.809836 0.3513288 0.7157138
1.62076 0 0.7233481
0 0.7540412 0.720732
0 0.7529382 0.722084
0 0.7491858 0.7258675
0.732436 0.732436 0.732436
1.481 0.5579066 0.6607625
0 1.177358 0.5306418
0 1.173553 0.5290148
0 1.162275 0.5241936
0 1.130598 0.5106701
1.038033 1.016534 0.4622252
0 0 1.234498
0 0 1.244253
0.3497427 0 1.269486
0.79833 0 1.322195
1.627243 0 1.37759
0 0.1786593 1.257637
0 0.1652161 1.265688
0.3230369 0.1089172 1.287033
0.7935828 0 1.33361
1.612122 0 1.368414
0 0.4088662 1.307459
0 0.4049121 1.312756
0.1963428 0.3917837 1.32738
0.7731616 0.3425217 1.361928
1.564378 0 1.338705
0 0.760744 1.385964
0 0.7592233 1.388602
0 0.753002 1.39375
0.65409 0.7170985 1.376927
1.426199 0.537429 1.251369
0 1.154476 1.103478
0 1.15084 1.100972
0 1.140056 1.093558
0 1.109731 1.072856
1 1 1
